X:1028
T:Sergt Stack' Favorite
N:"Collected by Stack"
B:O'Neill's 1028
Z:Transcribed by Dan G. Petersen, dangp@post6.tele.dk
M:6/8
L:1/8
K:A
A/B/|"S"~c3 BcB|AGE GAB|~c3 dcd|e/f/g.e a/f/e.d|
~c3 BcB|AGE GAB|dcBA GED|EAA HA2:|
A/B/|c/d/e.f agfg|eaf ged/B/|c/d/e.f agfg|eag a2A/B/|
c/d/e.f agfg|eab age/d/|~c3 ~d3|.ef.ec .d.fe/"S"f/:|
